!!!COM: Scriabin, Alexander
!!!OTL@@FR: Prélude en si majeur
!!!OTL@@EN: Prelude in B Major
!!!OPR@@FR: 24 Préludes
!!!OPR@@EN: 24 Preludes
!!!OPS: 11
!!!ONM: 11
!!!ODT: 1895
!!!AGN: Prelude
**kern	**kern	**dynam
*staff2	*staff1	*staff1/2
*Ipiano	*Ipiano	*
*clefF4	*clefG2	*
*k[f#c#g#d#a#]	*k[f#c#g#d#a#]	*
*B:	*B:	*
*M6/8	*M6/8	*
=1	=1	=1
*^	*^	*
16FF#LL 16F#	8ryy	4r	[4.dd#	.
16BB	.	.	.	.
16B	8BL	.	.	.
16F#	.	.	.	.
16d#	8d#J	8f#	.	.
16F#JJ	.	.	.	.
16GGnLL 16Gn	8ryy	4.e	8dd#L]	.
16BB	.	.	.	.
16B	8BL	.	8dd#	.
16E	.	.	.	.
16e	8eJ	.	8cc#J	.
16EJJ	.	.	.	.
*	*	*v	*v	*
=2	=2	=2	=2
16CC#LL 16C#	8ryy	2.gn 2.b 2.ee	.
16Gn	.	.	.
16B	8BL	.	.
16C#	.	.	.
16e	8eJ	.	.
16GJJ	.	.	.
16bLL	8bL	.	.
16B	.	.	.
16e	8e	.	.
16G	.	.	.
16B	8BJ	.	.
16BBJJ	.	.	.
=3	=3	=3	=3
*	*	*^	*
16DD#LL 16D#	8ryy	8f#L	[4.ff#	.
16BB	.	.	.	.
16B	8BL	8b	.	.
16F#	.	.	.	.
16f#	8f#J	8anJ	.	.
16BJJ	.	.	.	.
16EELL 16E	8ryy	4.gn	8ff#L]	.
16BB	.	.	.	.
16B	8BL	.	8ff#	.
16E	.	.	.	.
16g	8gnJ	.	8eeJ	.
16BJJ	.	.	.	.
*	*	*v	*v	*
=4	=4	=4	=4
16CC#LL 16C#	8ryy	2.e 2.b 2.ee 2.ggn	.
16Gn	.	.	.
16B	8BL	.	.
16C#	.	.	.
16e	8eJ	.	.
16GJJ	.	.	.
16bLL	8bL	.	.
16B	.	.	.
16e	8e	.	.
16G	.	.	.
16B	8BJ	.	.
16BBJJ	.	.	.
=5	=5	=5	=5
*	*	*^	*
16DD#LL 16D#	8ryy	4.gn	8ggnL	.
16BB	.	.	.	.
16B	8BL	.	8dd#	.
16Gn	.	.	.	.
16d#	8d#J	.	[8cc#J	.
16D#JJ	.	.	.	.
16EELL 16E	8ryy	4.g	8cc#L]	.
16BB	.	.	.	.
16c#	8c#L	.	8b	.
16G	.	.	.	.
16B	8BJ	.	8cc#J	.
16BBJJ	.	.	.	.
=6	=6	=6	=6	=6
16DD#LL 16D#	8ryy	4.f##X	8ff##XL	.
16BB	.	.	.	.
16B	8BL	.	8dd#	.
16F##X	.	.	.	.
16d#	8d#J	.	[8cc#J	.
16D#JJ	.	.	.	.
16EELL 16E	8ryy	4.g#X	8cc#L]	.
16BB	.	.	.	.
16d#	8d#L	.	8b	.
16G#	.	.	.	.
16B	8BJ	.	8dd#J	.
16D#JJ	.	.	.	.
*	*	*v	*v	*
=7	=7	=7	=7
16CC#LL 16C#	8ryy	[4g# 4b 4ee 4gg#	.
16GG#	.	.	.
16B	8BL	.	.
16E	.	.	.
*	*	*^	*
16e	8eJ	8g#]	8dd#	.
16BJJ	.	.	.	.
16bLL	8bL	8a#L	8ff#L	.
16B	.	.	.	.
16e	8e	8g#	8ee	.
16G#	.	.	.	.
16B	8BJ	8f#J	8dd#J	.
16EJJ	.	.	.	.
=8	=8	=8	=8	=8
16FF#LL 16F#	8ryy	2.f#	4.dd#	.
16E	.	.	.	.
16B	8BL	.	.	.
16G#	.	.	.	.
16f#	8f#J	.	.	.
16C#JJ	.	.	.	.
16FF#LL 16F#	8ryy	.	4.cc#	.
16E	.	.	.	.
16A#	8A#L	.	.	.
16F#	.	.	.	.
16f#	8f#J	.	.	.
16C#JJ	.	.	.	.
=9	=9	=9	=9	=9
16FF#LL 16F#	8ryy	4r	[4.dd#	.
16BB	.	.	.	.
16B	8BL	.	.	.
16F#	.	.	.	.
16d#	8d#J	8f#	.	.
16F#JJ	.	.	.	.
16GGnLL 16Gn	8ryy	4.e	8dd#L]	.
16BB	.	.	.	.
16B	8BL	.	8dd#	.
16E	.	.	.	.
16e	8eJ	.	8cc#J	.
16EJJ	.	.	.	.
*	*	*v	*v	*
=10	=10	=10	=10
16CC#LL 16C#	8ryy	2.gn 2.b 2.ee	.
16Gn	.	.	.
16B	8BL	.	.
16C#	.	.	.
16e	8eJ	.	.
16GJJ	.	.	.
16bLL	8bL	.	.
16B	.	.	.
16e	8e	.	.
16G	.	.	.
16B	8BJ	.	.
16BBJJ	.	.	.
=11	=11	=11	=11
*	*	*^	*
16DD#LL 16D#	8ryy	8f#L	[4.ff#	.
16BB	.	.	.	.
16B	8BL	8b	.	.
16F#	.	.	.	.
16f#	8f#J	8anJ	.	.
16BJJ	.	.	.	.
16EELL 16E	8ryy	4.gn	8ff#L]	.
16BB	.	.	.	.
16B	8BL	.	8ff#	.
16E	.	.	.	.
16g	8gnJ	.	8eeJ	.
16BJJ	.	.	.	.
*	*	*v	*v	*
=12	=12	=12	=12
16CC#LL 16C#	8ryy	2.e 2.b 2.ee 2.ggn	.
16Gn	.	.	.
16B	8BL	.	.
16C#	.	.	.
16e	8eJ	.	.
16GJJ	.	.	.
16bLL	8bL	.	.
16B	.	.	.
16e	8e	.	.
16G	.	.	.
16B	8BJ	.	.
16BBJJ	.	.	.
=13	=13	=13	=13
*	*	*^	*
16DD#LL 16D#	8ryy	4.gn	8ggnL	.
16BB	.	.	.	.
16B	8BL	.	8dd#	.
16Gn	.	.	.	.
16d#	8d#J	.	[8cc#J	.
16D#JJ	.	.	.	.
16EELL 16E	8ryy	4.g	8cc#L]	.
16BB	.	.	.	.
16c#	8c#L	.	8b	.
16G	.	.	.	.
16B	8BJ	.	8cc#J	.
16BBJJ	.	.	.	.
*	*	*v	*v	*
=14	=14	=14	=14
16EE#XLL 16E#X	8ryy	4.c# 4.b 4.ggn	.
16C#	.	.	.
16c#	8c#L	.	.
16Gn	.	.	.
16B	8BJ	.	.
16BBJJ	.	.	.
16FF#LL 16F#	8ryy	4.d# 4.b 4.ff#	.
16D#	.	.	.
16B	8BL	.	.
16F#	.	.	.
16f#	8f#J	.	.
16BJJ	.	.	.
=15	=15	=15	=15
*	*	*^	*
16FF##XLL 16F##X	8ryy	4.b	8bbL	.
16D#	.	.	.	.
16c#	8c#L	.	8ee	.
16B	.	.	.	.
16d#	8d#J	.	[8dd#J	.
16D#JJ	.	.	.	.
16GG#LL 16G#X	8ryy	4.b	8dd#L]	.
16D#	.	.	.	.
16e	8eL	.	8ff##X	.
16B	.	.	.	.
16d#	8d#J	.	8gg#XJ	.
16D#JJ	.	.	.	.
*	*	*v	*v	*
=16	=16	=16	=16
16GG##XLL 16G##X	8ryy	4.f# 4.dd# 4.bb	.
16F#X	.	.	.
16f#	8f#L	.	.
16B	.	.	.
16d#	8d#J	.	.
16F#JJ	.	.	.
16AA#LL 16A#	8ryy	4.f# 4.dd# 4.aa#	.
16F#	.	.	.
16f#	8f#L	.	.
16A#	.	.	.
16d#	8d#J	.	.
32F#JJk	.	.	.
32r	.	.	.
*v	*v	*	*
=17	=17	=17
*	*^	*
16AA#LL	4.f# 4.cc# 4.ee	4ff#	.
16F#	.	.	.
16e	.	.	.
16c#	.	.	.
16f#	.	[8ff#	.
16F#JJ	.	.	.
16BBLL	4.f# 4.b 4.ee	8ff#L]	.
16F#	.	.	.
16e	.	16gg#L	.
16B	.	16ff#	.
16f#	.	16.b	.
16F#JJ	.	.	.
.	.	32a#JJk	.
*	*v	*v	*
=18	=18	=18
16C#LL	32%3ddd#L	.
16F#	.	.
.	32%3ccc#	.
16en	.	.
16A#	32%3ee#X	.
16a#	.	.
.	32%3ff#J	.
16eJJ	.	.
16ELL	16aa#LL	.
16A#	16gg#	.
16f#	16b#X	.
16c#	16cc#	.
16cc#	16ee#	.
16f#JJ	16ff#JJ	.
=19	=19	=19
*	*^	*
16BB#XLL	4.g# 4.dd# 4.ff#	4gg#	.
16G#	.	.	.
16f#	.	.	.
16d#	.	.	.
16g#	.	[8gg#	.
16G#JJ	.	.	.
16C#LL	4.g# 4.cc# 4.ff#	8gg#]L	.
16G#	.	.	.
16f#	.	16aa#L	.
16c#	.	16gg#	.
16g#	.	16.cc#	.
16G#JJ	.	.	.
.	.	32b#XJJk	.
*	*v	*v	*
=20	=20	=20
16D#LL	32%3eee#XL	.
16G#	.	.
.	32%3ddd#	.
16f#	.	.
16B#X	32%3ff##X	.
16b#X	.	.
.	32%3gg#J	.
16f#JJ	.	.
16F#XLL	16bb#XLL	.
16B#	16aa#	.
16g#	16cc##X	.
16d#	16dd#	.
16dd#	16ff##	.
16g#JJ	16gg#JJ	.
*clefG2	*	*
=21	=21	=21
*	*^	*
16ELL	4.g# 4.cc##X	4bbn	.
16B	.	.	.
16g#	.	.	.
16c##X	.	.	.
16cc##X	.	[8bb	.
16g#JJ	.	.	.
16E#XLL	4.g# 4.cc##	4bb]	.
16B	.	.	.
16g#	.	.	.
16c##	.	.	.
16cc##	.	[8bb	.
16g#JJ	.	.	.
=22	=22	=22	=22
16F#LL	4.f# 4.dd#	8bbL]	.
16B	.	.	.
16f#	.	8aa#	.
16d#	.	.	.
16dd#	.	8gg#J	.
16bJJ	.	.	.
16G#LL	4.f# 4.b	8ff#L	.
16b	.	.	.
16d#	.	8een	.
*clefF4	*	*	*
16G#	.	.	.
16D#	.	8dd#J	.
16GG#JJ	.	.	.
=23	=23	=23	=23
16CC#LL	4.g# 4.b	4ee	.
16GG#	.	.	.
16E	.	.	.
16B	.	.	.
16c#	.	8b	.
16g#JJ	.	.	.
16g#LL	4.e 4.b	[4.dd#	.
16c#	.	.	.
16B	.	.	.
16E	.	.	.
16B	.	.	.
16C#JJ	.	.	.
=24	=24	=24	=24
16FF#LL	4.e 4.b	4dd#]	.
16E	.	.	.
16B	.	.	.
16E	.	.	.
16g#	.	8cc#	.
16C#JJ	.	.	.
16FF#LL	4.e 4.a#	4gg#	.
16E	.	.	.
16A#	.	.	.
16F#	.	.	.
16f#	.	8ff#	.
16FF#JJ	.	.	.
=25	=25	=25	=25
16BBBLL	2.d# 2.an	4.cc#	.
16FF#	.	.	.
16D#	.	.	.
16An	.	.	.
16c#	.	.	.
16BJJ	.	.	.
*^	*	*	*
16ALL	8AL	.	[4.dd#	.
16BB	.	.	.	.
16d#	8d#	.	.	.
16F#	.	.	.	.
16a	8anJ	.	.	.
16AJJ	.	.	.	.
*v	*v	*	*	*
=26	=26	=26	=26
16BBBLL	2.e 2.g#	4dd#]	.
16EE	.	.	.
16E	.	.	.
16G#	.	.	.
16c#	.	8cc#	.
16BJJ	.	.	.
*^	*	*	*
16G#LL	8G#L	.	4dd#	.
16BB	.	.	.	.
16B	8B	.	.	.
16G#	.	.	.	.
16g#	8g#J	.	8ee	.
16BJJ	.	.	.	.
*v	*v	*	*	*
=27	=27	=27	=27
16BBBLL	2.e	4.a# 4.gg#	.
16FF#	.	.	.
16E	.	.	.
16G#	.	.	.
16d#	.	.	.
16c#JJ	.	.	.
16eLL	.	4.cc# 4.aa#	.
16A#	.	.	.
16C#	.	.	.
16FF#	.	.	.
16GG#	.	.	.
16FF#JJ	.	.	.
=28	=28	=28	=28
16BBBLL	2.f# 2.dd# 2.ff#	4.aa#	.
16FF#	.	.	.
16D#	.	.	.
16G#	.	.	.
16d#	.	.	.
16F#JJ	.	.	.
*clefG2	*	*	*
16dd#LL	.	8bbL	.
16f#	.	.	.
16d#	.	8ff#	.
*clefF4	*	*	*
16F#	.	.	.
16BB	.	8dd#J	.
16FF#JJ	.	.	.
=29	=29	=29	=29
*	*	*^	*
16BBBLL	2.d#/	8anL	4.cc#	.
16FF#	.	.	.	.
16D#	.	8b	.	.
16An	.	.	.	.
16c#	.	8aJ	.	.
16BJJ	.	.	.	.
*^	*	*	*	*
16ALL	8AL	.	4g#	[4.dd#	.
16BB	.	.	.	.	.
16d#	8d#	.	.	.	.
16F#	.	.	.	.	.
16a	8anJ	.	8f#	.	.
16AJJ	.	.	.	.	.
*	*	*	*v	*v	*
*v	*v	*	*	*
=30	=30	=30	=30
16BBBLL	[4.e 4.g#	4dd#]	.
16EE	.	.	.
16E	.	.	.
16G#	.	.	.
16c#	.	8cc#	.
16BJJ	.	.	.
*^	*	*	*
16G#LL	8G#L	4.e]	4dd#	.
16BB	.	.	.	.
16B	8B	.	.	.
16G#	.	.	.	.
16g#	8g#J	.	8ee	.
16BJJ	.	.	.	.
*v	*v	*	*	*
=31	=31	=31	=31
16BBBLL	2.e	4.a# 4.gg#	.
16FF#	.	.	.
16E	.	.	.
16G#	.	.	.
16d#	.	.	.
16c#JJ	.	.	.
16eLL	.	4.cc# 4.aa#	.
16A#	.	.	.
16C#	.	.	.
16FF#	.	.	.
16GG#	.	.	.
16FF#JJ	.	.	.
=32	=32	=32	=32
16BBBLL	2.f# 2.dd# 2.ff#	4.aa#	.
16FF#	.	.	.
16D#	.	.	.
16G#	.	.	.
16d#	.	.	.
16F#JJ	.	.	.
*clefG2	*	*	*
16dd#LL	.	4bb	.
16f#	.	.	.
16d#	.	.	.
*clefF4	*	*	*
16F#	.	.	.
16BB	.	8ff#	.
16FF#JJ	.	.	.
=33	=33	=33	=33
16BBBLL	2.e	4.a# 4.gg#	.
16FF#	.	.	.
16E	.	.	.
16G#	.	.	.
16d#	.	.	.
16c#JJ	.	.	.
16eLL	.	4.cc# 4.aa#	.
16A#	.	.	.
16C#	.	.	.
16FF#	.	.	.
16GG#	.	.	.
16FF#JJ	.	.	.
=34	=34	=34	=34
16BBBLL	2.f# 2.dd# 2.ff#	4.aa#	.
16FF#	.	.	.
16D#	.	.	.
16G#	.	.	.
16d#	.	.	.
16F#JJ	.	.	.
*clefG2	*	*	*
16dd#LL	.	4bb	.
16f#	.	.	.
16d#	.	.	.
*clefF4	*	*	*
16F#	.	.	.
16BB	.	8ff#	.
16FF#JJ	.	.	.
*	*v	*v	*
=35	=35	=35
*	*^	*
16BBBLL	4.e 4.b	4.gg#	.
16FF#	.	.	.
16E	.	.	.
16G#	.	.	.
16d#	.	.	.
16c#JJ	.	.	.
16eLL	4.g# 4.ee	[4.bb	.
16B	.	.	.
16C#	.	.	.
16FF#	.	.	.
16GG#	.	.	.
16FF#JJ	.	.	.
=36	=36	=36	=36
16BBBLL	2.g# 2.ee	4.bb]	.
16FF#	.	.	.
16E	.	.	.
16G#	.	.	.
16d#	.	.	.
16c#JJ	.	.	.
16eLL	.	4.ccc#	.
16B	.	.	.
16C#	.	.	.
16FF#	.	.	.
16GG#	.	.	.
16FF#JJ	.	.	.
=37	=37	=37	=37
16BBBLL	2.b 2.ff# 2.bb	2.ccc#	.
16FF#	.	.	.
16F#	.	.	.
16BB	.	.	.
16F#	.	.	.
16f#JJ	.	.	.
*clefG2	*	*	*
16BLL	.	.	.
16f#	.	.	.
16b	.	.	.
16f#	.	.	.
16b	.	.	.
16ff#JJ	.	.	.
=38	=38	=38	=38
4r	4b 4ff# 4bb	4ddd#	.
*	*v	*v	*
8r	8r	.
*clefF4	*clefF4	*
4.BBB 4.FF# 4.BB	4.D# 4.F# 4.B 4.d#	.
=39	=39	=39
2.BBB 2.FF# 2.BB	2.D# 2.F# 2.B 2.d#	.
==	==	==
*-	*-	*-
!!!system-decoration: {(*)}
!!!filter: flipper -a
!!!ENC: Bryan Jacob Bell
!!!END: November 2021 to April 2022
!!!PED: Günter Philipp
!!!PTL: Ausgewählte Klavierwerke (Edition Peters)
